app/assets/images/heroicons/mini/document-currency-dollar.svg

<svg width="20" height="20" viewBox="0 0 20 20" fill="none" xmlns="http://www.w3.org/2000/svg">
<path fill-rule="evenodd" clip-rule="evenodd" d="M4.5 2C3.67157 2 3 2.67157 3 3.5V16.5C3 17.3284 3.67157 18 4.5 18H15.5C16.3284 18 17 17.3284 17 16.5V7.62132C17 7.2235 16.842 6.84197 16.5607 6.56066L12.4393 2.43934C12.158 2.15804 11.7765 2 11.3787 2H4.5ZM10.7502 5.75C10.7502 5.33579 10.4144 5 10.0002 5C9.58598 5 9.25019 5.33579 9.25019 5.75V6.02172C8.83174 6.04601 8.41852 6.09051 8.01153 6.15428C7.05037 6.30489 6.20466 7.0357 6.06223 8.08165C6.02129 8.38229 6.00019 8.68888 6.00019 9C6.00019 10.0438 6.83024 10.7588 7.70849 10.8975L9.25019 11.1409V13.4754C8.45874 13.4234 7.69026 13.2896 6.95288 13.0826C6.55408 12.9707 6.14004 13.2032 6.0281 13.602C5.91616 14.0008 6.1487 14.4148 6.5475 14.5268C7.41506 14.7703 8.31957 14.9243 9.25019 14.9783V15.25C9.25019 15.6642 9.58598 16 10.0002 16C10.4144 16 10.7502 15.6642 10.7502 15.25V14.9783C11.1686 14.954 11.5819 14.9095 11.9889 14.8457C12.95 14.6951 13.7957 13.9643 13.9382 12.9183C13.9791 12.6177 14.0002 12.3111 14.0002 12C14.0002 10.9562 13.1701 10.2412 12.2919 10.1025L10.7502 9.85912V7.52458C11.5416 7.57662 12.3101 7.71041 13.0475 7.9174C13.4463 8.02934 13.8603 7.79679 13.9723 7.39799C14.0842 6.99919 13.8517 6.58515 13.4529 6.47321C12.5853 6.22969 11.6808 6.07575 10.7502 6.02172V5.75ZM8.24374 7.6362C8.57452 7.58437 8.91022 7.54693 9.25019 7.52458V9.6223L7.94241 9.41584C7.63523 9.36734 7.50019 9.15634 7.50019 9C7.50019 8.75677 7.51668 8.51779 7.54851 8.28405C7.5906 7.97496 7.85383 7.6973 8.24374 7.6362ZM10.7502 13.4754V11.3777L12.058 11.5842C12.3652 11.6327 12.5002 11.8437 12.5002 12C12.5002 12.2432 12.4837 12.4822 12.4519 12.716C12.4098 13.025 12.1465 13.3027 11.7566 13.3638C11.4259 13.4156 11.0902 13.4531 10.7502 13.4754Z" fill="black"/>
</svg>

<svg xmlns="http://www.w3.org/2000/svg" viewBox="0 0 20 20" fill="currentColor" aria-hidden="true" data-slot="icon">
  <path fill-rule="evenodd" d="M4.5 2A1.5 1.5 0 0 0 3 3.5v13A1.5 1.5 0 0 0 4.5 18h11a1.5 1.5 0 0 0 1.5-1.5V7.621a1.5 1.5 0 0 0-.44-1.06l-4.12-4.122A1.5 1.5 0 0 0 11.378 2H4.5Zm6.25 3.75a.75.75 0 0 0-1.5 0v.272c-.418.024-.831.069-1.238.132-.962.15-1.807.882-1.95 1.928-.04.3-.062.607-.062.918 0 1.044.83 1.759 1.708 1.898l1.542.243v2.334a11.214 11.214 0 0 1-2.297-.392.75.75 0 0 0-.405 1.444c.867.243 1.772.397 2.702.451v.272a.75.75 0 0 0 1.5 0v-.272c.419-.024.832-.069 1.239-.132.961-.15 1.807-.882 1.95-1.928.04-.3.061-.607.061-.918 0-1.044-.83-1.759-1.708-1.898L10.75 9.86V7.525c.792.052 1.56.185 2.297.392a.75.75 0 0 0 .406-1.444 12.723 12.723 0 0 0-2.703-.451V5.75ZM8.244 7.636c.33-.052.666-.09 1.006-.111v2.097l-1.308-.206C7.635 9.367 7.5 9.156 7.5 9c0-.243.017-.482.049-.716.042-.309.305-.587.695-.648Zm2.506 5.84v-2.098l1.308.206c.307.049.442.26.442.416 0 .243-.016.482-.048.716-.042.309-.306.587-.695.648-.331.052-.667.09-1.007.111Z" clip-rule="evenodd"/>
</svg>
